X: 82
T: Greencastle
B: begged borrowed and stolen
M:4/4
L:1/8
R: hornpipe
Q: 1/4=100
K:G
V:1 
dc|:"G"BGDG BGDG|(3gag fg "C"e2dc|"G"BGDG BGDG|"Am"dcB<c "D7"A2dc|
"G"BGDG BGDG|(3gag fg "C"e2dc|"G"Bdfe "D7"dcAF|1"G"G2B2 G2dc:||2"G"G2B2 ga:|
|"Em"bagf efga|bagf e2fg|"D"agfe defg|agfe "D7"d2 (3def|
"G"gfgd "C"e2"G"d2|"Am"cBAB "D7"cdef|"G"gfgd "D7"ecAF|"G"G2B2G2:|
% abcbook-tune_id 627e2b1f96f1b48d123668f7


% abcbook-boost 0
% abcbook-tablature 
% abcbook-transpose 
% abcbook-lastupdated 1652725431118
% abcbook-soundfonts 
% abcbook-repeats 3
% Rhythm Hornpipe
% Titles One title
% Transcriptions Only 1 transcription
% Movement Has some stepwise movement
% Movement Never repeats a note
% Mode major
% Key G
% Time_signature 4/4
% Has_accompaniment_chords Has chords

